src/assets/Cryptologos/Currency=Dogecoin (DOGE).svg

<svg width="26" height="26" viewBox="0 0 26 26" fill="none" xmlns="http://www.w3.org/2000/svg">
<path opacity="0.2" d="M13 26C20.1797 26 26 20.1797 26 13C26 5.8203 20.1797 0 13 0C5.8203 0 0 5.8203 0 13C0 20.1797 5.8203 26 13 26Z" fill="#32A4BE"/>
<path opacity="0.2" d="M13 26C20.1797 26 26 20.1797 26 13C26 5.8203 20.1797 0 13 0C5.8203 0 0 5.8203 0 13C0 20.1797 5.8203 26 13 26Z" fill="#C2A633"/>
<mask id="mask0_1_142" style="mask-type:luminance" maskUnits="userSpaceOnUse" x="0" y="0" width="26" height="26">
<path d="M13 26C20.1797 26 26 20.1797 26 13C26 5.8203 20.1797 0 13 0C5.8203 0 0 5.8203 0 13C0 20.1797 5.8203 26 13 26Z" fill="white"/>
</mask>
<g mask="url(#mask0_1_142)">
<path fill-rule="evenodd" clip-rule="evenodd" d="M13.2151 7.78571H9.66554V12.5H7.5V14.0714H9.66554V18.7857H13.2151C15.0886 18.7857 15.4923 18.5895 16.2997 18.1971C16.3624 18.1666 16.4275 18.135 16.4959 18.1021C17.4457 17.6464 18.1839 17.0048 18.7103 16.1771C19.2368 15.3495 19.5 14.3857 19.5 13.2857C19.5 12.1857 19.2368 11.2219 18.7103 10.3943C18.1839 9.56665 17.4457 8.92499 16.4959 8.46928C15.5461 8.01356 14.4525 7.78571 13.2151 7.78571ZM12.3033 14.0714V16.6957H13.0848C14.2246 16.6957 15.1336 16.3893 15.8121 15.7764C16.4905 15.1636 16.8297 14.3333 16.8297 13.2857C16.8297 12.2381 16.4905 11.4079 15.8121 10.795C15.1336 10.1821 14.2246 9.87571 13.0848 9.87571H12.3033V12.5H14.827V14.0714H12.3033Z" fill="#C2A633"/>
</g>
</svg>

<svg width="26" height="26" fill="none" xmlns="http://www.w3.org/2000/svg"><path opacity=".2" d="M13 26c7.18 0 13-5.82 13-13S20.18 0 13 0 0 5.82 0 13s5.82 13 13 13z" fill="#32A4BE"/><path opacity=".2" d="M13 26c7.18 0 13-5.82 13-13S20.18 0 13 0 0 5.82 0 13s5.82 13 13 13z" fill="#C2A633"/><mask id="a" style="mask-type:luminance" maskUnits="userSpaceOnUse" x="0" y="0" width="26" height="26"><path d="M13 26c7.18 0 13-5.82 13-13S20.18 0 13 0 0 5.82 0 13s5.82 13 13 13z" fill="#fff"/></mask><g mask="url(#a)"><path fill-rule="evenodd" clip-rule="evenodd" d="M13.215 7.786h-3.55V12.5H7.5v1.571h2.166v4.715h3.55c1.873 0 2.276-.197 3.084-.589l.196-.095c.95-.456 1.688-1.097 2.214-1.925.527-.827.79-1.791.79-2.891s-.263-2.064-.79-2.892c-.526-.827-1.264-1.469-2.214-1.925-.95-.455-2.043-.683-3.28-.683zm-.912 6.285v2.625h.782c1.14 0 2.049-.307 2.727-.92.679-.612 1.018-1.443 1.018-2.49 0-1.048-.34-1.878-1.018-2.491-.678-.613-1.587-.92-2.727-.92h-.782V12.5h2.524v1.571h-2.524z" fill="#C2A633"/></g></svg>
